web/packages/design/src/ResourceIcon/assets/microsoftexcel.svg

<svg width="72" height="72" viewBox="0 0 72 72" fill="none" xmlns="http://www.w3.org/2000/svg">
<g clip-path="url(#clip0_8803_4752)">
<path d="M45.2093 34.3235L16.7441 29.3003V66.4171C16.7441 68.1122 18.1183 69.4863 19.8133 69.4863H68.9308C70.6258 69.4863 72 68.1122 72 66.4171V52.7422L45.2093 34.3235Z" fill="#185C37"/>
<path d="M45.2093 2.50977H19.8133C18.1183 2.50977 16.7441 3.88389 16.7441 5.57897V19.254L45.2093 35.9981L60.279 41.0214L72 35.9981V19.254L45.2093 2.50977Z" fill="#21A366"/>
<path d="M16.7441 19.2539H45.2093V35.9981H16.7441V19.2539Z" fill="#107C41"/>
<path opacity="0.1" d="M37.1168 15.9053H16.7441V57.7657H37.1168C38.8096 57.7602 40.1805 56.3893 40.186 54.6965V18.9745C40.1805 17.2817 38.8096 15.9108 37.1168 15.9053Z" fill="black"/>
<path opacity="0.2" d="M35.4424 17.5796H16.7441V59.4401H35.4424C37.1352 59.4346 38.5061 58.0636 38.5116 56.3709V20.6488C38.5061 18.956 37.1352 17.5851 35.4424 17.5796Z" fill="black"/>
<path opacity="0.2" d="M35.4424 17.5796H16.7441V56.0912H35.4424C37.1352 56.0857 38.5061 54.7148 38.5116 53.022V20.6488C38.5061 18.956 37.1352 17.5851 35.4424 17.5796Z" fill="black"/>
<path opacity="0.2" d="M33.768 17.5796H16.7441V56.0912H33.768C35.4607 56.0857 36.8317 54.7148 36.8372 53.022V20.6488C36.8317 18.956 35.4607 17.5851 33.768 17.5796Z" fill="black"/>
<path d="M3.0692 17.5796H33.768C35.4631 17.5796 36.8372 18.9537 36.8372 20.6488V51.3476C36.8372 53.0426 35.4631 54.4168 33.768 54.4168H3.0692C1.37412 54.4168 0 53.0427 0 51.3476V20.6488C0 18.9537 1.37412 17.5796 3.0692 17.5796Z" fill="url(#paint0_linear_8803_4752)"/>
<path d="M9.50586 45.9746L15.9624 35.9699L10.0467 26.0205H14.8054L18.0337 32.3833C18.3317 32.9878 18.536 33.4365 18.6465 33.7329H18.6884C18.9005 33.2506 19.1237 32.7824 19.3581 32.328L22.8091 26.0239H27.1777L21.1112 35.9147L27.3317 45.9745H22.6835L18.9546 38.9906C18.779 38.6934 18.6299 38.3813 18.5092 38.0579H18.454C18.3447 38.3747 18.1998 38.6781 18.022 38.9621L14.1825 45.9746H9.50586Z" fill="white"/>
<path d="M68.9305 2.50977H45.209V19.254H71.9997V5.57897C71.9997 3.88389 70.6256 2.50977 68.9305 2.50977Z" fill="#33C481"/>
<path d="M45.209 35.998H71.9997V52.7422H45.209V35.998Z" fill="#107C41"/>
</g>
<defs>
<linearGradient id="paint0_linear_8803_4752" x1="6.39937" y1="15.1814" x2="30.4378" y2="56.815" gradientUnits="userSpaceOnUse">
<stop stop-color="#18884F"/>
<stop offset="0.5" stop-color="#117E43"/>
<stop offset="1" stop-color="#0B6631"/>
</linearGradient>
<clipPath id="clip0_8803_4752">
<rect width="72" height="72" fill="white"/>
</clipPath>
</defs>
</svg>

<svg xmlns="http://www.w3.org/2000/svg" width="72" height="72" fill="none" viewBox="0 0 72 72"><g clip-path="url(#clip0_8803_4752)"><path fill="#185c37" d="M45.21 34.324 16.743 29.3v37.117a3.07 3.07 0 0 0 3.07 3.07H68.93A3.07 3.07 0 0 0 72 66.416V52.742z"/><path fill="#21a366" d="M45.21 2.51H19.812a3.07 3.07 0 0 0-3.069 3.069v13.675L45.21 35.998l15.07 5.023L72 35.998V19.254z"/><path fill="#107c41" d="M16.744 19.254H45.21v16.744H16.744z"/><path fill="#000" d="M37.117 15.905H16.744v41.86h20.373a3.08 3.08 0 0 0 3.069-3.068V18.974a3.08 3.08 0 0 0-3.07-3.069" opacity=".1"/><path fill="#000" d="M35.442 17.58H16.744v41.86h18.698a3.08 3.08 0 0 0 3.07-3.07V20.65a3.08 3.08 0 0 0-3.07-3.07" opacity=".2"/><path fill="#000" d="M35.442 17.58H16.744v38.51h18.698a3.08 3.08 0 0 0 3.07-3.069V20.649a3.08 3.08 0 0 0-3.07-3.07" opacity=".2"/><path fill="#000" d="M33.768 17.58H16.744v38.51h17.024a3.08 3.08 0 0 0 3.07-3.069V20.649a3.08 3.08 0 0 0-3.07-3.07" opacity=".2"/><path fill="url(#paint0_linear_8803_4752)" d="M3.07 17.58h30.698a3.07 3.07 0 0 1 3.07 3.069v30.699a3.07 3.07 0 0 1-3.07 3.069H3.069A3.07 3.07 0 0 1 0 51.347V20.65a3.07 3.07 0 0 1 3.07-3.07"/><path fill="#fff" d="m9.506 45.975 6.456-10.005-5.915-9.95h4.758l3.229 6.363q.447.906.613 1.35h.041q.32-.723.67-1.405l3.451-6.304h4.369l-6.067 9.89 6.22 10.06h-4.648l-3.728-6.983a6 6 0 0 1-.446-.933h-.055q-.165.477-.432.904l-3.84 7.013z"/><path fill="#33c481" d="M68.93 2.51H45.21v16.744H72V5.579a3.07 3.07 0 0 0-3.068-3.07"/><path fill="#107c41" d="M45.209 35.998h26.79v16.744H45.21z"/></g><defs><linearGradient id="paint0_linear_8803_4752" x1="6.399" x2="30.438" y1="15.181" y2="56.815" gradientUnits="userSpaceOnUse"><stop stop-color="#18884f"/><stop offset=".5" stop-color="#117e43"/><stop offset="1" stop-color="#0b6631"/></linearGradient><clipPath id="clip0_8803_4752"><path fill="#fff" d="M0 0h72v72H0z"/></clipPath></defs></svg>
